X: 918
T: The Blooming Meadows. 2nd Setting.
B:O'Neill's 918
N:"collected by J. O'Neill."
Z:Transcribed by Tom Keays (htkeays@mailbox.syr.edu)
Z:abc 1.6
M:6/8
R:Jig
L:1/8
K:G
(G/F/) | D2G G2A | B2d cAG | F2D DED | F2F (E2D) |
D2G G2A | BAG Ade | fed cAF | AGG G2 :|
|| (B/c/) | def g2a | bag afd | fef afd | (d>ef/g/) afd |
def g2a | bag afd | fed cAF | AGG G2 :|
|| (G/A/) | B3 ~c3 | dcB cAG | ~F3 DED | FEF AFD |
B3 cBc | dcB cde | fed cAF | AGG G2 :|


